; HEADER_BLOCK_START
; generated by Creality_Print V5.1.7.10514 on 2025-04-27 at 17:02:22
; total layer number: 100
; filament_density: 1.24
; filament_diameter: 1.75
; max_z_height: 20.00
; HEADER_BLOCK_END

; MINX = 100.00
; MINY = 100.00
; MINZ = 0.00
; MAXX = 120.00
; MAXY = 120.00
; MAXZ = 20.00

; THUMBNAIL_BLOCK_START

;
; THUMBNAIL_BLOCK_END

; THUMBNAIL_BLOCK_START

;
; THUMBNAIL_BLOCK_END

; external perimeters extrusion width = 0.42mm
; perimeters extrusion width = 0.45mm
; infill extrusion width = 0.45mm
; solid infill extrusion width = 0.42mm
; top infill extrusion width = 0.42mm
; first layer extrusion width = 0.55mm

; EXECUTABLE_BLOCK_START
EXCLUDE_OBJECT_DEFINE NAME=Cuboid_id_0_copy_0 CENTER=110,110 POLYGON=[[100,100],[120,100],[120,120],[100,120],[100,100]]
M73 P0 R17
M106 S0
M106 P2 S0
;TYPE:Custom
M140 S0
M104 S0
START_PRINT EXTRUDER_TEMP=220 BED_TEMP=65
G90
G21
M83 ; use relative distances for extrusion
; filament start gcode
M106 S0
;LAYER_CHANGE
;Z:0.2
;HEIGHT:0.2
;BEFORE_LAYER_CHANGE
;0.2
G92 E0

G1 E-.8 F2400
;AFTER_LAYER_CHANGE
;0.2
;_SET_FAN_SPEED_CHANGING_LAYER
SET_VELOCITY_LIMIT ACCEL=2000 ACCEL_TO_DECEL=500
SET_VELOCITY_LIMIT SQUARE_CORNER_VELOCITY=9
; printing object Cuboid id:0 copy 0
EXCLUDE_OBJECT_START NAME=Cuboid_id_0_copy_0
G1 X119.575 Y119.575 F30000
G1 Z.4
G1 Z.2
G1 E.8 F2400
;TYPE:Outer wall
;WIDTH:0.549999
G1 F4874
G1 X100.425 Y119.575 E.79129
G1 X100.425 Y100.425 E.79129
G1 X119.575 Y100.425 E.79129
G1 X119.575 Y119.535 E.78964
G1 E-.76 F2400
;WIPE_START
G1 F6000
G1 X118.075 Y119.538 E-.04
;WIPE_END
G1 X118.657 Y111.928 Z.6 F30000
G1 X119.448 Y101.594 Z.6
G1 Z.2
G1 E.8 F2400
;TYPE:Bottom surface
;WIDTH:0.558215
G1 F4874
G1 X118.634 Y100.78 E.04835
G1 X117.905 Y100.78 E.0306
G1 X119.22 Y102.095 E.07808
G1 X119.22 Y102.824 E.0306
G1 X117.176 Y100.78 E.12135
G1 X116.448 Y100.78 E.0306
G1 X119.22 Y103.552 E.16463
G1 X119.22 Y104.281 E.0306
G1 X115.719 Y100.78 E.2079
G1 X114.99 Y100.78 E.0306
G1 X119.22 Y105.01 E.25118
G1 X119.22 Y105.738 E.0306
G1 X114.262 Y100.78 E.29445
G1 X113.533 Y100.78 E.0306
G1 X119.22 Y106.467 E.33773
G1 X119.22 Y107.196 E.0306
G1 X112.804 Y100.78 E.381
G1 X112.075 Y100.78 E.0306
G1 X119.22 Y107.925 E.42427
G1 X119.22 Y108.653 E.0306
G1 X111.347 Y100.78 E.46755
G1 X110.618 Y100.78 E.0306
G1 X119.22 Y109.382 E.51082
G1 X119.22 Y110.111 E.0306
G1 X109.889 Y100.78 E.5541
G1 X109.16 Y100.78 E.0306
G1 X119.22 Y110.84 E.59737
G1 X119.22 Y111.568 E.0306
G1 X108.432 Y100.78 E.64065
G1 X107.703 Y100.78 E.0306
G1 X119.22 Y112.297 E.68392
G1 X119.22 Y113.026 E.0306
G1 X106.974 Y100.78 E.7272
G1 X106.245 Y100.78 E.0306
G1 X119.22 Y113.755 E.77047
G1 X119.22 Y114.483 E.0306
G1 X105.517 Y100.78 E.81374
G1 X104.788 Y100.78 E.0306
G1 X119.22 Y115.212 E.85702
G1 X119.22 Y115.941 E.0306
G1 X104.059 Y100.78 E.90029
G1 X103.33 Y100.78 E.0306
G1 X119.22 Y116.67 E.94357
G1 X119.22 Y117.398 E.0306
G1 X102.602 Y100.78 E.98684
G1 X101.873 Y100.78 E.0306
G1 X119.22 Y118.127 E1.03012
G1 X119.22 Y118.856 E.0306
G1 X101.144 Y100.78 E1.07339
G1 X100.78 Y100.78 E.0153
G1 X100.78 Y101.144 E.0153
G1 X118.856 Y119.22 E1.07338
G1 X118.127 Y119.22 E.0306
G1 X100.78 Y101.873 E1.03011
G1 X100.78 Y102.602 E.0306
G1 X117.398 Y119.22 E.98684
G1 X116.669 Y119.22 E.0306
G1 X100.78 Y103.331 E.94356
G1 X100.78 Y104.059 E.0306
G1 X115.941 Y119.22 E.90029
G1 X115.212 Y119.22 E.0306
G1 X100.78 Y104.788 E.85701
G1 X100.78 Y105.517 E.0306
G1 X114.483 Y119.22 E.81374
G1 X113.754 Y119.22 E.0306
G1 X100.78 Y106.246 E.77046
M73 P1 R17
G1 X100.78 Y106.974 E.0306
G1 X113.026 Y119.22 E.72719
G1 X112.297 Y119.22 E.0306
G1 X100.78 Y107.703 E.68391
G1 X100.78 Y108.432 E.0306
G1 X111.568 Y119.22 E.64064
G1 X110.84 Y119.22 E.0306
G1 X100.78 Y109.16 E.59736
G1 X100.78 Y109.889 E.0306
G1 X110.111 Y119.22 E.55409
G1 X109.382 Y119.22 E.0306
G1 X100.78 Y110.618 E.51082
G1 X100.78 Y111.347 E.0306
G1 X108.653 Y119.22 E.46754
G1 X107.925 Y119.22 E.0306
G1 X100.78 Y112.075 E.42427
G1 X100.78 Y112.804 E.0306
G1 X107.196 Y119.22 E.38099
G1 X106.467 Y119.22 E.0306
G1 X100.78 Y113.533 E.33772
G1 X100.78 Y114.262 E.0306
G1 X105.738 Y119.22 E.29444
G1 X105.01 Y119.22 E.0306
G1 X100.78 Y114.99 E.25117
G1 X100.78 Y115.719 E.0306
G1 X104.281 Y119.22 E.20789
G1 X103.552 Y119.22 E.0306
G1 X100.78 Y116.448 E.16462
G1 X100.78 Y117.177 E.0306
G1 X102.823 Y119.22 E.12135
G1 X102.095 Y119.22 E.0306
G1 X100.78 Y117.905 E.07807
G1 X100.78 Y118.634 E.0306
G1 X101.594 Y119.448 E.04835
; stop printing object Cuboid id:0 copy 0
;TIME_ELAPSED:13.400900

M106 S201
;LAYER_CHANGE
;Z:0.4
;HEIGHT:0.2
;BEFORE_LAYER_CHANGE
;0.4
G92 E0

G1 E-.76 F2400
;WIPE_START
G1 F8150.671
G1 X100.78 Y118.634 E-.0307
G1 X100.78 Y118.285 E-.0093
;WIPE_END
EXCLUDE_OBJECT_END NAME=Cuboid_id_0_copy_0
;AFTER_LAYER_CHANGE
;0.4
;_SET_FAN_SPEED_CHANGING_LAYER
SET_VELOCITY_LIMIT ACCEL=12000 ACCEL_TO_DECEL=3000
SET_VELOCITY_LIMIT SQUARE_CORNER_VELOCITY=12
M140 S65 ; set bed temperature
; printing object Cuboid id:0 copy 0
EXCLUDE_OBJECT_START NAME=Cuboid_id_0_copy_0
G1 X108.399 Y118.744 Z.6 F30000
G1 X118.926 Y119.376 Z.6
G1 Z.4
G1 E.8 F2400
SET_VELOCITY_LIMIT ACCEL=6000 ACCEL_TO_DECEL=1500 SQUARE_CORNER_VELOCITY=9
;TYPE:Inner wall
;WIDTH:0.449999
G1 F6500
G1 X100.624 Y119.376 E.60714
G1 X100.624 Y100.624 E.62207
G1 X119.376 Y100.624 E.62207
G1 X119.376 Y119.376 E.62207
G1 X118.966 Y119.376 E.0136
SET_VELOCITY_LIMIT ACCEL=12000 ACCEL_TO_DECEL=3000 SQUARE_CORNER_VELOCITY=12
G1 X119.79 Y119.79 F30000
SET_VELOCITY_LIMIT ACCEL=5000 ACCEL_TO_DECEL=1250 SQUARE_CORNER_VELOCITY=9
;TYPE:Outer wall
;WIDTH:0.419999
G1 F6500
G1 X100.21 Y119.79 E.60164
G1 X100.21 Y100.21 E.60164
G1 X119.79 Y100.21 E.60164
G1 X119.79 Y119.75 E.60041
SET_VELOCITY_LIMIT ACCEL=12000 ACCEL_TO_DECEL=3000 SQUARE_CORNER_VELOCITY=12
G1 E-.76 F2400
;WIPE_START
G1 F11138.25
G1 X118.29 Y119.753 E-.04
;WIPE_END
G1 X119.075 Y119.017 Z.8 F30000
G1 Z.4
G1 E.8 F2400
SET_VELOCITY_LIMIT ACCEL=9600 ACCEL_TO_DECEL=2400
;TYPE:Internal solid infill
;WIDTH:0.38292
G1 F6500
G1 X119.011 Y119.054 E.00204
G1 X119.076 Y119.088 E.00204
SET_VELOCITY_LIMIT ACCEL=12000 ACCEL_TO_DECEL=3000
G1 X118.449 Y119.276 F30000
SET_VELOCITY_LIMIT ACCEL=9600 ACCEL_TO_DECEL=2400
;WIDTH:0.421124
G1 F6500
G1 X119.107 Y118.618 E.02868
G1 X119.107 Y118.083 E.01648
G1 X118.083 Y119.107 E.04459
G1 X117.549 Y119.107 E.01648
G1 X119.107 Y117.549 E.0679
G1 X119.107 Y117.014 E.01648
G1 X117.014 Y119.107 E.09122
G1 X116.479 Y119.107 E.01648
G1 X119.107 Y116.479 E.11453
G1 X119.107 Y115.944 E.01648
G1 X115.944 Y119.107 E.13784
G1 X115.409 Y119.107 E.01648
G1 X119.107 Y115.409 E.16115
G1 X119.107 Y114.874 E.01648
G1 X114.874 Y119.107 E.18446
G1 X114.339 Y119.107 E.01648
G1 X119.107 Y114.339 E.20777
G1 X119.107 Y113.804 E.01648
G1 X113.804 Y119.107 E.23109
G1 X113.27 Y119.107 E.01648
G1 X119.107 Y113.27 E.2544
G1 X119.107 Y112.735 E.01648
G1 X112.735 Y119.107 E.27771
G1 X112.2 Y119.107 E.01648
G1 X119.107 Y112.2 E.30102
G1 X119.107 Y111.665 E.01648
G1 X111.665 Y119.107 E.32433
G1 X111.13 Y119.107 E.01648
G1 X119.107 Y111.13 E.34764
G1 X119.107 Y110.595 E.01648
G1 X110.595 Y119.107 E.37095
G1 X110.06 Y119.107 E.01648
G1 X119.107 Y110.06 E.39427
G1 X119.107 Y109.526 E.01648
G1 X109.526 Y119.107 E.41758
G1 X108.991 Y119.107 E.01648
G1 X119.107 Y108.991 E.44089
G1 X119.107 Y108.456 E.01648
G1 X108.456 Y119.107 E.4642
G1 X107.921 Y119.107 E.01648
G1 X119.107 Y107.921 E.48751
G1 X119.107 Y107.386 E.01648
G1 X107.386 Y119.107 E.51082
G1 X106.851 Y119.107 E.01648
G1 X119.107 Y106.851 E.53414
G1 X119.107 Y106.316 E.01648
G1 X106.316 Y119.107 E.55745
G1 X105.782 Y119.107 E.01648
G1 X119.107 Y105.782 E.58076
G1 X119.107 Y105.247 E.01648
G1 X105.247 Y119.107 E.60407
G1 X104.712 Y119.107 E.01648
G1 X119.107 Y104.712 E.62738
G1 X119.107 Y104.177 E.01648
G1 X104.177 Y119.107 E.65069
G1 X103.642 Y119.107 E.01648
G1 X119.107 Y103.642 E.67401
G1 X119.107 Y103.107 E.01648
G1 X103.107 Y119.107 E.69732
G1 X102.572 Y119.107 E.01648
G1 X119.107 Y102.572 E.72063
G1 X119.107 Y102.038 E.01648
G1 X102.038 Y119.107 E.74394
M73 P1 R16
G1 X101.503 Y119.107 E.01648
G1 X119.107 Y101.503 E.76725
G1 X119.107 Y100.968 E.01648
G1 X100.968 Y119.107 E.79056
G1 X100.893 Y119.107 E.00229
G1 X100.893 Y118.646 E.01419
G1 X118.646 Y100.893 E.77373
G1 X118.111 Y100.893 E.01648
G1 X100.893 Y118.111 E.75042
M73 P2 R16
G1 X100.893 Y117.576 E.01648
G1 X117.576 Y100.893 E.72711
G1 X117.041 Y100.893 E.01648
G1 X100.893 Y117.041 E.7038
G1 X100.893 Y116.507 E.01648
G1 X116.507 Y100.893 E.68049
G1 X115.972 Y100.893 E.01648
G1 X100.893 Y115.972 E.65717
G1 X100.893 Y115.437 E.01648
G1 X115.437 Y100.893 E.63386
G1 X114.902 Y100.893 E.01648
G1 X100.893 Y114.902 E.61055
G1 X100.893 Y114.367 E.01648
G1 X114.367 Y100.893 E.58724
G1 X113.832 Y100.893 E.01648
G1 X100.893 Y113.832 E.56393
G1 X100.893 Y113.297 E.01648
G1 X113.297 Y100.893 E.54062
G1 X112.763 Y100.893 E.01648
G1 X100.893 Y112.763 E.5173
G1 X100.893 Y112.228 E.01648
G1 X112.228 Y100.893 E.49399
G1 X111.693 Y100.893 E.01648
G1 X100.893 Y111.693 E.47068
G1 X100.893 Y111.158 E.01648
G1 X111.158 Y100.893 E.44737
G1 X110.623 Y100.893 E.01648
G1 X100.893 Y110.623 E.42406
G1 X100.893 Y110.088 E.01648
G1 X110.088 Y100.893 E.40075
G1 X109.553 Y100.893 E.01648
G1 X100.893 Y109.553 E.37743
G1 X100.893 Y109.018 E.01648
G1 X109.018 Y100.893 E.35412
G1 X108.484 Y100.893 E.01648
G1 X100.893 Y108.484 E.33081
G1 X100.893 Y107.949 E.01648
G1 X107.949 Y100.893 E.3075
G1 X107.414 Y100.893 E.01648
G1 X100.893 Y107.414 E.28419
G1 X100.893 Y106.879 E.01648
G1 X106.879 Y100.893 E.26088
G1 X106.344 Y100.893 E.01648
G1 X100.893 Y106.344 E.23756
G1 X100.893 Y105.809 E.01648
G1 X105.809 Y100.893 E.21425
G1 X105.274 Y100.893 E.01648
G1 X100.893 Y105.274 E.19094
G1 X100.893 Y104.74 E.01648
G1 X104.74 Y100.893 E.16763
G1 X104.205 Y100.893 E.01648
G1 X100.893 Y104.205 E.14432
G1 X100.893 Y103.67 E.01648
G1 X103.67 Y100.893 E.12101
G1 X103.135 Y100.893 E.01648
G1 X100.893 Y103.135 E.0977
G1 X100.893 Y102.6 E.01648
G1 X102.6 Y100.893 E.07438
G1 X102.065 Y100.893 E.01648
G1 X100.893 Y102.065 E.05107
G1 X100.893 Y101.53 E.01648
G1 X101.7 Y100.724 E.03516
SET_VELOCITY_LIMIT ACCEL=12000 ACCEL_TO_DECEL=3000
G1 X101.011 Y100.953 F30000
SET_VELOCITY_LIMIT ACCEL=9600 ACCEL_TO_DECEL=2400
;WIDTH:0.38292
G1 F6500
G1 X100.947 Y100.99 E.00204
G1 X101.012 Y101.024 E.00204
; stop printing object Cuboid id:0 copy 0
;TIME_ELAPSED:24.985897

M106 P2 S0
;LAYER_CHANGE
;Z:0.6
;HEIGHT:0.2
;BEFORE_LAYER_CHANGE
;0.6
G92 E0

G1 E-.77055 F2400
;WIPE_START
G1 F12000
G1 X100.947 Y100.99 E-.01473
G1 X101.011 Y100.953 E-.01472
;WIPE_END
EXCLUDE_OBJECT_END NAME=Cuboid_id_0_copy_0
;AFTER_LAYER_CHANGE
;0.6
;_SET_FAN_SPEED_CHANGING_LAYER
; printing object Cuboid id:0 copy 0
SET_VELOCITY_LIMIT ACCEL=12000 ACCEL_TO_DECEL=3000
EXCLUDE_OBJECT_START NAME=Cuboid_id_0_copy_0
G1 X106.332 Y106.425 Z.8 F30000
G1 X118.926 Y119.376 Z.8
G1 Z.6
G1 E.8 F2400
SET_VELOCITY_LIMIT ACCEL=6000 ACCEL_TO_DECEL=1500 SQUARE_CORNER_VELOCITY=9
;TYPE:Inner wall
;WIDTH:0.449999
G1 F6558
G1 X100.624 Y119.376 E.60714
G1 X100.624 Y100.624 E.62207
G1 X119.376 Y100.624 E.62207
G1 X119.376 Y119.376 E.62207
G1 X118.966 Y119.376 E.0136
SET_VELOCITY_LIMIT ACCEL=12000 ACCEL_TO_DECEL=3000 SQUARE_CORNER_VELOCITY=12
G1 X119.79 Y119.79 F30000
SET_VELOCITY_LIMIT ACCEL=5000 ACCEL_TO_DECEL=1250 SQUARE_CORNER_VELOCITY=9
;TYPE:Outer wall
;WIDTH:0.419999
G1 F6558
G1 X100.21 Y119.79 E.60164
G1 X100.21 Y100.21 E.60164
G1 X119.79 Y100.21 E.60164
G1 X119.79 Y119.75 E.60041
SET_VELOCITY_LIMIT ACCEL=12000 ACCEL_TO_DECEL=3000 SQUARE_CORNER_VELOCITY=12
G1 E-.76 F2400
;WIPE_START
G1 F11138.25
G1 X118.29 Y119.753 E-.04
;WIPE_END
G1 X118.703 Y112.132 Z1 F30000
G1 X119.276 Y101.551 Z1
G1 Z.6
G1 E.8 F2400
SET_VELOCITY_LIMIT ACCEL=9600 ACCEL_TO_DECEL=2400
;TYPE:Internal solid infill
;WIDTH:0.421124
G1 F6558
G1 X118.618 Y100.893 E.02868
G1 X118.083 Y100.893 E.01648
G1 X119.107 Y101.917 E.04459
G1 X119.107 Y102.451 E.01648
G1 X117.549 Y100.893 E.0679
G1 X117.014 Y100.893 E.01648
G1 X119.107 Y102.986 E.09122
G1 X119.107 Y103.521 E.01648
G1 X116.479 Y100.893 E.11453
G1 X115.944 Y100.893 E.01648
G1 X119.107 Y104.056 E.13784
G1 X119.107 Y104.591 E.01648
G1 X115.409 Y100.893 E.16115
G1 X114.874 Y100.893 E.01648
G1 X119.107 Y105.126 E.18446
G1 X119.107 Y105.661 E.01648
G1 X114.339 Y100.893 E.20777
G1 X113.804 Y100.893 E.01648
G1 X119.107 Y106.196 E.23109
G1 X119.107 Y106.73 E.01648
G1 X113.27 Y100.893 E.2544
G1 X112.735 Y100.893 E.01648
G1 X119.107 Y107.265 E.27771
G1 X119.107 Y107.8 E.01648
G1 X112.2 Y100.893 E.30102
G1 X111.665 Y100.893 E.01648
G1 X119.107 Y108.335 E.32433
G1 X119.107 Y108.87 E.01648
G1 X111.13 Y100.893 E.34764
G1 X110.595 Y100.893 E.01648
G1 X119.107 Y109.405 E.37095
G1 X119.107 Y109.94 E.01648
G1 X110.06 Y100.893 E.39427
G1 X109.526 Y100.893 E.01648
G1 X119.107 Y110.474 E.41758
G1 X119.107 Y111.009 E.01648
G1 X108.991 Y100.893 E.44089
G1 X108.456 Y100.893 E.01648
G1 X119.107 Y111.544 E.4642
G1 X119.107 Y112.079 E.01648
G1 X107.921 Y100.893 E.48751
G1 X107.386 Y100.893 E.01648
G1 X119.107 Y112.614 E.51082
G1 X119.107 Y113.149 E.01648
G1 X106.851 Y100.893 E.53414
G1 X106.316 Y100.893 E.01648
G1 X119.107 Y113.684 E.55745
G1 X119.107 Y114.218 E.01648
G1 X105.782 Y100.893 E.58076
G1 X105.247 Y100.893 E.01648
G1 X119.107 Y114.753 E.60407
G1 X119.107 Y115.288 E.01648
G1 X104.712 Y100.893 E.62738
G1 X104.177 Y100.893 E.01648
G1 X119.107 Y115.823 E.65069
G1 X119.107 Y116.358 E.01648
G1 X103.642 Y100.893 E.67401
G1 X103.107 Y100.893 E.01648
G1 X119.107 Y116.893 E.69732
G1 X119.107 Y117.428 E.01648
G1 X102.572 Y100.893 E.72063
G1 X102.038 Y100.893 E.01648
G1 X119.107 Y117.962 E.74394
M73 P3 R16
G1 X119.107 Y118.497 E.01648
G1 X101.503 Y100.893 E.76725
G1 X100.968 Y100.893 E.01648
G1 X119.107 Y119.032 E.79056
G1 X119.107 Y119.107 E.00229
G1 X118.646 Y119.107 E.01419
G1 X100.893 Y101.354 E.77373
G1 X100.893 Y101.889 E.01648
G1 X118.111 Y119.107 E.75042
G1 X117.576 Y119.107 E.01648
G1 X100.893 Y102.424 E.72711
G1 X100.893 Y102.959 E.01648
G1 X117.041 Y119.107 E.7038
G1 X116.507 Y119.107 E.01648
G1 X100.893 Y103.493 E.68049
G1 X100.893 Y104.028 E.01648
G1 X115.972 Y119.107 E.65717
G1 X115.437 Y119.107 E.01648
G1 X100.893 Y104.563 E.63386
G1 X100.893 Y105.098 E.01648
G1 X114.902 Y119.107 E.61055
G1 X114.367 Y119.107 E.01648
G1 X100.893 Y105.633 E.58724
G1 X100.893 Y106.168 E.01648
G1 X113.832 Y119.107 E.56393
G1 X113.297 Y119.107 E.01648
G1 X100.893 Y106.703 E.54062
G1 X100.893 Y107.237 E.01648
G1 X112.763 Y119.107 E.5173
G1 X112.228 Y119.107 E.01648
G1 X100.893 Y107.772 E.49399
G1 X100.893 Y108.307 E.01648
G1 X111.693 Y119.107 E.47068
G1 X111.158 Y119.107 E.01648
G1 X100.893 Y108.842 E.44737
G1 X100.893 Y109.377 E.01648
G1 X110.623 Y119.107 E.42406
G1 X110.088 Y119.107 E.01648
G1 X100.893 Y109.912 E.40075
G1 X100.893 Y110.447 E.01648
G1 X109.553 Y119.107 E.37743
G1 X109.018 Y119.107 E.01648
G1 X100.893 Y110.982 E.35412
G1 X100.893 Y111.516 E.01648
G1 X108.484 Y119.107 E.33081
G1 X107.949 Y119.107 E.01648
G1 X100.893 Y112.051 E.3075
G1 X100.893 Y112.586 E.01648
G1 X107.414 Y119.107 E.28419
G1 X106.879 Y119.107 E.01648
G1 X100.893 Y113.121 E.26088
G1 X100.893 Y113.656 E.01648
G1 X106.344 Y119.107 E.23756
G1 X105.809 Y119.107 E.01648
G1 X100.893 Y114.191 E.21425
G1 X100.893 Y114.726 E.01648
G1 X105.274 Y119.107 E.19094
G1 X104.74 Y119.107 E.01648
G1 X100.893 Y115.26 E.16763
G1 X100.893 Y115.795 E.01648
G1 X104.205 Y119.107 E.14432
G1 X103.67 Y119.107 E.01648
G1 X100.893 Y116.33 E.12101
G1 X100.893 Y116.865 E.01648
G1 X103.135 Y119.107 E.0977
G1 X102.6 Y119.107 E.01648
G1 X100.893 Y117.4 E.07438
G1 X100.893 Y117.935 E.01648
G1 X102.065 Y119.107 E.05107
G1 X101.53 Y119.107 E.01648
G1 X100.724 Y118.3 E.03516
SET_VELOCITY_LIMIT ACCEL=12000 ACCEL_TO_DECEL=3000
G1 X101.011 Y118.973 F30000
SET_VELOCITY_LIMIT ACCEL=9600 ACCEL_TO_DECEL=2400
;WIDTH:0.38292
G1 F6558
G1 X100.947 Y119.01 E.00204
G1 X101.012 Y119.045 E.00204
SET_VELOCITY_LIMIT ACCEL=12000 ACCEL_TO_DECEL=3000
G1 X119.075 Y100.909 F30000
SET_VELOCITY_LIMIT ACCEL=9600 ACCEL_TO_DECEL=2400
G1 F6558
